X:115
T: EIN SCHAEFERMAEDCHEN SASS IM GRUENEN
N: B0146
O: Europa, Mitteleuropa, Deutschland, Rheinland
R: Ballade, Romanze
M: 4/4
L: 1/8
K: D
D2 | F3FFFEF | A2G2z2
EF | G3GGGFG | B2A2z2
DF | A3AAAGA | B4z2
d2 | c3BAAGA | F4z2

